assets/dist/images/integrations/vero-segment.svg

<svg xmlns="http://www.w3.org/2000/svg" xmlns:xlink="http://www.w3.org/1999/xlink" width="305" height="120" viewBox="0 0 305 120">
  <defs>
    <path id="vero-segment-a" d="M33.0500494,0.0021896077 C33.0032262,0.000700674464 32.9561414,0 32.9090566,0 L32.9090566,0 L4.55039819,0 C4.52301924,0 4.49572749,0.000175168616 4.46843574,0.000700674464 L4.46843574,0.000700674464 C4.44157996,0.000175168616 4.41481137,0 4.3878684,0 L4.3878684,0 C1.94634657,0 0,1.95505692 0,4.40741755 L0,4.40741755 C0,4.95753459 0.104807301,5.48531763 0.296285532,5.97141054 L0.296285532,5.97141054 C0.385833866,6.24528667 0.503458699,6.51417049 0.650031971,6.77447106 L0.650031971,6.77447106 L14.8293612,31.4238484 C15.0326978,31.7769883 15.2765797,32.090978 15.5513283,32.363628 L15.5513283,32.363628 C16.3498518,33.2142468 17.4921816,33.75 18.7702726,33.75 L18.7702726,33.75 C19.8379643,33.75 20.8208161,33.3499149 21.5773121,32.6924195 L21.5773121,32.6924195 C22.0059583,32.3541689 22.3798465,31.9289471 22.6706388,31.4238484 L22.6706388,31.4238484 L36.849968,6.77447106 C36.9937511,6.51925038 37.1095448,6.25579678 37.1984828,5.98752605 L37.1984828,5.98752605 C37.3929257,5.49687875 37.5,4.96366549 37.5,4.40741755 L37.5,4.40741755 C37.5,1.95505692 35.5536534,0 33.1933965,0 L33.1933965,0 C33.1453526,0 33.0975702,0.000700674464 33.0500494,0.0021896077 L33.0500494,0.0021896077 Z M20.1516887,23.1801505 L31.3651107,3.63203367 C31.4053944,3.57676797 31.431727,3.53463992 31.4463756,3.50959081 L31.4463756,3.50959081 C31.7781492,2.87005019 32.4225135,2.44850691 33.1933965,2.44850691 L33.1933965,2.44850691 C34.2080742,2.44850691 35.0623147,3.30770898 35.0623147,4.40741755 L35.0623147,4.40741755 C35.0623147,4.78324181 34.9387607,5.15240967 34.7372551,5.46850144 L34.7372551,5.46850144 C34.7148462,5.48549279 34.7001976,5.51246876 34.6967099,5.55013001 L34.6967099,5.55013001 L22.3455793,27.0162556 L20.1516887,23.1801505 Z M4.55039819,2.44850691 L29.2523978,2.44850691 L27.0585072,6.28478719 L4.55039819,6.28478719 C4.51194559,6.28478719 4.47436494,6.28356101 4.42850084,6.28478719 L4.42850084,6.28478719 C4.40042434,6.28356101 4.36354124,6.28478719 4.30669069,6.28478719 L4.30669069,6.28478719 C3.25172935,6.28478719 2.39714003,5.42593547 2.39714003,4.40741755 L2.39714003,4.40741755 C2.39714003,3.30735864 3.25172935,2.44850691 4.30669069,2.44850691 L4.30669069,2.44850691 C4.36354124,2.44850691 4.40033715,2.44964551 4.42850084,2.44850691 L4.42850084,2.44850691 C4.44375981,2.44894484 4.45814683,2.44903242 4.4719235,2.44903242 L4.4719235,2.44903242 C4.49947684,2.44903242 4.52467593,2.44850691 4.55039819,2.44850691 L4.55039819,2.44850691 Z M11.8457536,8.7332941 L25.6543335,8.7332941 L18.7499564,20.7358477 L11.8457536,8.7332941 Z M16.9827065,30.2811359 C16.9854095,30.2523207 16.9718072,30.2297239 16.9419869,30.1995073 L16.9419869,30.1995073 L4.63157589,8.7332941 L9.01953148,8.7332941 L20.273586,28.281411 C20.2884962,28.334925 20.3129105,28.3819578 20.3547637,28.4446681 L20.3547637,28.4446681 C20.5272336,28.7322074 20.6391908,29.0943685 20.6391908,29.5056644 L20.6391908,29.5056644 C20.6391908,30.5242699 19.7853863,31.3830341 18.7702726,31.3830341 L18.7702726,31.3830341 C17.9688717,31.3830341 17.3022729,30.9254937 16.9827065,30.2811359 L16.9827065,30.2811359 Z"/>
    <linearGradient id="vero-segment-b" x1="100%" x2="0%" y1="50%" y2="50%">
      <stop offset="0%" stop-color="#52BD94"/>
      <stop offset="100%" stop-color="#01B2D0"/>
    </linearGradient>
  </defs>
  <g fill="none" fill-rule="evenodd">
    <path fill="#01B2D0" d="M65.6568542,5.65685425 L114.343146,54.3431458 C117.46734,57.4673401 117.46734,62.5326599 114.343146,65.6568542 L65.6568542,114.343146 C62.5326599,117.46734 57.4673401,117.46734 54.3431458,114.343146 L5.65685425,65.6568542 C2.53265992,62.5326599 2.53265992,57.4673401 5.65685425,54.3431458 L54.3431458,5.65685425 C57.4673401,2.53265992 62.5326599,2.53265992 65.6568542,5.65685425 Z"/>
    <use fill="#FFF" transform="translate(40 47)" xlink:href="#vero-segment-a"/>
    <g transform="translate(185)">
      <path fill="#52BD94" d="M65.6568542,5.65685425 L114.343146,54.3431458 C117.46734,57.4673401 117.46734,62.5326599 114.343146,65.6568542 L65.6568542,114.343146 C62.5326599,117.46734 57.4673401,117.46734 54.3431458,114.343146 L5.65685425,65.6568542 C2.53265992,62.5326599 2.53265992,57.4673401 5.65685425,54.3431458 L54.3431458,5.65685425 C57.4673401,2.53265992 62.5326599,2.53265992 65.6568542,5.65685425 Z"/>
      <g fill="#FFF" transform="translate(43 43)">
        <rect width="20.9" height="3.626" x="13.127" y="11.942" fill-rule="nonzero" rx=".674"/>
        <rect width="20.9" height="3.626" x=".195" y="21.002" fill-rule="nonzero" rx=".674"/>
        <path d="M2.70456 14.42336C3.05785899 14.5148382 3.42034162 14.310977 3.52568 13.96156 5.76358033 6.93346707 12.9905258 2.7706689 20.1928 4.36112 20.5417356 4.4337595 20.8862937 4.21986246 20.976 3.87492L21.56588 1.67336C21.6128934 1.49438767 21.5847313 1.30397663 21.4879234 1.1462757 21.3911155.98857478 21.2340701.877281356 21.0532.8382 11.9470626-1.21519085 2.79267056 4.07784516.0292 12.9942-.0222012228 13.168389-.000798198626 13.3559743.0885201663 13.5141076.177838531 13.6722408.327442737 13.7874143.50316 13.83332L2.70456 14.42336zM31.525 22.14576C31.171746 22.0543082 30.8093198 22.2581497 30.704 22.60752 28.4661911 29.635748 21.239101 33.7986169 14.03676 32.208 13.6878863 32.1354992 13.3434601 32.3493581 13.25372 32.6942L12.664 34.89576C12.6169866 35.0747323 12.6451487 35.2651434 12.7419566 35.4228443 12.8387645 35.5805452 12.9958099 35.6918386 13.17668 35.73092 22.2828174 37.7843109 31.4372094 32.4912748 34.20068 23.57492 34.2520929 23.4007308 34.2306951 23.2131401 34.1413751 23.0550038 34.052055 22.8968676 33.9024435 22.7816958 33.72672 22.7358L31.525 22.14576z"/>
        <circle cx="27.445" cy="5.973" r="1.988" fill-rule="nonzero"/>
        <circle cx="6.784" cy="30.596" r="1.988" fill-rule="nonzero"/>
      </g>
    </g>
    <g transform="translate(121 55)">
      <circle cx="58" cy="5" r="5" stroke="#52BD94" stroke-width="2"/>
      <circle cx="5" cy="5" r="5" stroke="#01B2D0" stroke-width="2"/>
      <rect width="38" height="4" x="13" y="3" fill="url(#vero-segment-b)" rx="2"/>
    </g>
  </g>
</svg>

<svg xmlns="http://www.w3.org/2000/svg" xmlns:xlink="http://www.w3.org/1999/xlink" width="305" height="120" viewBox="0 0 305 120"><defs><linearGradient id="b" x1="100%" x2="0%" y1="50%" y2="50%"><stop offset="0%" stop-color="#52BD94"/><stop offset="100%" stop-color="#01B2D0"/></linearGradient><path id="a" d="M33.05.002A4.44 4.44 0 0032.91 0H4.387A4.375 4.375 0 000 4.407c0 .55.105 1.078.296 1.564.09.274.207.543.354.803l14.18 24.65c.203.353.447.667.721.94a4.397 4.397 0 003.22 1.386c1.067 0 2.05-.4 2.806-1.058a4.42 4.42 0 001.094-1.268L36.85 6.774c.144-.255.26-.518.348-.786a4.28 4.28 0 00.302-1.58C37.5 1.954 35.554 0 33.193 0c-.048 0-.095 0-.143.002zM20.152 23.18L31.365 3.632c.04-.055.067-.097.081-.122a1.943 1.943 0 011.747-1.061c1.015 0 1.87.859 1.87 1.958 0 .376-.124.745-.326 1.062a.11.11 0 00-.04.081L22.346 27.016l-2.194-3.836zM4.55 2.45h24.702L27.06 6.285H4.307c-1.055 0-1.91-.86-1.91-1.878 0-1.1.855-1.958 1.91-1.958h.243zm7.296 6.284h13.808L18.75 20.736 11.846 8.733zm5.137 21.548c.002-.029-.011-.051-.041-.081L4.632 8.733H9.02l11.254 19.548a.546.546 0 00.08.164c.173.287.285.65.285 1.06 0 1.02-.854 1.878-1.869 1.878a1.983 1.983 0 01-1.787-1.102z"/></defs><g fill="none" fill-rule="evenodd"><path fill="#01B2D0" d="M65.657 5.657l48.686 48.686a8 8 0 010 11.314l-48.686 48.686a8 8 0 01-11.314 0L5.657 65.657a8 8 0 010-11.314L54.343 5.657a8 8 0 0111.314 0z"/><use fill="#FFF" transform="translate(40 47)" xlink:href="#a"/><path fill="#52BD94" d="M250.657 5.657l48.686 48.686a8 8 0 010 11.314l-48.686 48.686a8 8 0 01-11.314 0l-48.686-48.686a8 8 0 010-11.314l48.686-48.686a8 8 0 0111.314 0z"/><g fill="#FFF" transform="translate(228 43)"><rect width="20.9" height="3.626" x="13.127" y="11.942" fill-rule="nonzero" rx=".674"/><rect width="20.9" height="3.626" x=".195" y="21.002" fill-rule="nonzero" rx=".674"/><path d="M2.705 14.423a.68.68 0 00.82-.461c2.239-7.029 9.466-11.191 16.668-9.6a.668.668 0 00.783-.487l.59-2.202a.678.678 0 00-.513-.835C11.947-1.215 2.793 4.078.03 12.994a.671.671 0 00.474.84l2.202.59zm28.82 7.723a.68.68 0 00-.821.462c-2.238 7.028-9.465 11.19-16.667 9.6a.669.669 0 00-.783.486l-.59 2.202a.678.678 0 00.513.835c9.106 2.053 18.26-3.24 21.024-12.156a.671.671 0 00-.474-.84l-2.202-.59z"/><circle cx="27.445" cy="5.973" r="1.988" fill-rule="nonzero"/><circle cx="6.784" cy="30.596" r="1.988" fill-rule="nonzero"/></g><g transform="translate(121 55)"><circle cx="58" cy="5" r="5" stroke="#52BD94" stroke-width="2"/><circle cx="5" cy="5" r="5" stroke="#01B2D0" stroke-width="2"/><rect width="38" height="4" x="13" y="3" fill="url(#b)" rx="2"/></g></g></svg>
